X: 2
T: HORNPIPES: Callaghan's Set
T: Frisco
C: C: Trad.; S: Julia Clifford / Pádraig O'Keeffe
C: Set Leaders: Anton
Z: Anton Zille ed. arr.; Daemco / brailsford at The Session
N: https://thesession.org/members/26966/sets/94459
R: Hornpipe
M: 4/4
L: 1/8
Q: 1/2=82
K: Gmaj
e>d|:"G"(3BdB G>A B>de>f|(3gag f>g e>dB>A|"D"F>Ad>A F>Ad>A|F>Ad>B "D7"A2 e>d|
"G"(3BdB G>A (3Bcd e>f|(3gag f>g e>dB>A|"D"F>Ae>d B>GA>F|1 "G"G2 "D"G>F "G"G2 e>d:|2 "G"G2 "D"G>F "G"G2 e>f||
|:"Em"(3gag e>g "D"(3fgf d>f|"C"(3efe c>e "G"(3ded B>d|"C"c>BA>G F>GA>B|""(3Bcd e>d "D7"^c>de>f|
"G"g>ea>g "D"f>dg>f|"C"e>df>e "G (Bm7)"d>fe>d|"C"c>BA>G (3EFG A>B|1 "D7"(3c^cd e>f "G"g2 d2:|2 "D7"(3c^cd e>f "G"g2||
T: Callaghan's High
K: Gmaj
g>f|"C"(3efg f>g "D"e>AB>A|"G"G>AB>d "(D)"d>BG>E|"(G)"D>EG>A "Em"B>GB>d|"C"(3efg f>g "D"e>dB>d|
"Em"(3gag "(D)"f>g "(C)"e>dB>d|"C"(3efg f>a "(D)"g>fe>d|"G"(3BdB G>B "D"(3ABA F>A|"C"G2 "D"G>F "G"G2 B>d|
"Em"e>gf>g e>dB>A|"C"G>AB>e d>BG>E|"G"D>EG>A ~B3d|"C"(3efg f>g "D"e>dB>d|
"Em"(3gag "(D)"f>g "(C)"e>dB>d|"C"(3efg a>f "(D)"g>fe>d|"G"(3BdB G>B "D"(3ABA F>A|"C"G2 "D"G>F "G"G2 (3efg||
"D"a>fg>e d>eg>a|"Em"b>BB>A G2 f>g|"D"(3agf (3gfe d>eg>a|"Em"b2 e2 e3g|
"D"(3faf (3def "C"g>fe>g|"D"f>e (3def "C"g>fe>f|(3gab a>f g>fe>d|"D"B>AB>d "Em"e2 f>g|
"D"a>fg>e d>eg>a|"Em"b>BB>A G>ef>g|"D"(3agf (3gfe d>eg>a|"C"b2 e2 e3g|
"D"(3faf (3def "C"g>fe>g|"D"f>e (3def "C"g>fe>f|"(Em)"(3gab "(D)"(3agf "(C)"(3gfe (3fed|"D"B>de>f "C"g2||

